images/icons/chemistry_icon.svg

<svg enable-background="new 0 0 64 64" height="64" viewBox="0 0 64 64" width="64" xmlns="http://www.w3.org/2000/svg"><g fill="#241f20"><path d="m36.256 41.437c-2.451 3.992-7.285 3.291-8.825.14-4.063 4.414-7.377-.145-7.377-.145.744 5.889 5.768 10.439 11.86 10.439 6.19 0 11.28-4.701 11.891-10.73 0 0-5.448 3.167-7.549.296z"/><path d="m6.888 18.287v44.036c0 .926.782 1.674 1.751 1.674h46.722c.967 0 1.75-.748 1.75-1.674v-44.036zm25.042 36.507c-7.821 0-14.161-6.339-14.161-14.16 0-7.819 6.339-14.16 14.161-14.16 7.82 0 14.16 6.34 14.16 14.16 0 7.821-6.34 14.16-14.16 14.16z"/><path d="m55.361.004h-46.722c-.969 0-1.751.809-1.751 1.808v13.259h50.223v-13.259c0-.999-.783-1.808-1.75-1.808zm-39.231 10.045c-1.387 0-2.511-1.125-2.511-2.511 0-1.388 1.124-2.511 2.511-2.511s2.511 1.123 2.511 2.511c.001 1.386-1.123 2.511-2.511 2.511zm8.292 0c-1.386 0-2.511-1.125-2.511-2.511 0-1.388 1.125-2.511 2.511-2.511s2.511 1.123 2.511 2.511c.001 1.386-1.124 2.511-2.511 2.511z"/></g></svg>

<?xml version="1.0" ?><!DOCTYPE svg  PUBLIC '-//W3C//DTD SVG 1.1//EN'  'http://www.w3.org/Graphics/SVG/1.1/DTD/svg11.dtd'><svg enable-background="new 0 0 64 64" height="64px" id="Layer_1" version="1.1" viewBox="0 0 64 64" width="64px" xml:space="preserve" xmlns="http://www.w3.org/2000/svg" xmlns:xlink="http://www.w3.org/1999/xlink"><g><g><path d="M36.256,41.437c-2.451,3.992-7.285,3.291-8.825,0.14c-4.063,4.414-7.377-0.145-7.377-0.145    c0.744,5.889,5.768,10.439,11.86,10.439c6.19,0,11.28-4.701,11.891-10.73C43.805,41.141,38.357,44.308,36.256,41.437z" fill="#241F20"/><path d="M6.888,18.287v44.036c0,0.926,0.782,1.674,1.751,1.674h46.722c0.967,0,1.75-0.748,1.75-1.674V18.287H6.888    z M31.93,54.794c-7.821,0-14.161-6.339-14.161-14.16c0-7.819,6.339-14.16,14.161-14.16c7.82,0,14.16,6.34,14.16,14.16    C46.09,48.455,39.75,54.794,31.93,54.794z" fill="#241F20"/></g><path d="M55.361,0.004H8.639c-0.969,0-1.751,0.809-1.751,1.808v13.259h50.223V1.812   C57.111,0.813,56.328,0.004,55.361,0.004z M16.13,10.049c-1.387,0-2.511-1.125-2.511-2.511c0-1.388,1.124-2.511,2.511-2.511   s2.511,1.123,2.511,2.511C18.642,8.924,17.518,10.049,16.13,10.049z M24.422,10.049c-1.386,0-2.511-1.125-2.511-2.511   c0-1.388,1.125-2.511,2.511-2.511s2.511,1.123,2.511,2.511C26.934,8.924,25.809,10.049,24.422,10.049z" fill="#241F20"/></g></svg>
